public/icons/electric_scooter.svg

<?xml version="1.0" encoding="UTF-8" standalone="no"?>
<!-- Created with Inkscape (http://www.inkscape.org/) -->

<svg
   width="5.2922306mm"
   height="5.8208332mm"
   viewBox="0 0 5.2922306 5.8208332"
   version="1.1"
   id="svg1"
   xml:space="preserve"
   xmlns="http://www.w3.org/2000/svg"
   xmlns:svg="http://www.w3.org/2000/svg"><defs
     id="defs1" /><g
     id="layer1"
     transform="translate(-102.23973,-145.58958)"><g
       id="g1"
       transform="matrix(0.26458333,0,0,0.26458333,101.71113,145.325)"><path
         id="path1"
         d="M 11.999812 0.99998741 L 11.999812 2.9999874 L 15.890437 2.9999874 L 17.290827 9.2499875 L 17.279108 9.2499875 C 15.119111 9.8999869 13.469655 11.72999 13.089655 13.999988 L 7.820124 13.999988 C 7.3401245 12.659989 5.9602005 11.760535 4.4002021 12.060534 C 3.2202033 12.290534 2.2705924 13.259442 2.0505927 14.439441 C 1.700593 16.339439 3.1598133 17.999988 4.9998115 17.999988 C 6.2998102 17.999988 7.4001244 17.159986 7.820124 15.999988 L 14.999812 15.999988 L 14.999812 14.999988 C 14.999812 12.78999 16.789814 10.999988 18.999812 10.999988 L 19.740046 10.999988 L 17.839655 2.5605343 C 17.629656 1.6505352 16.820436 0.99998741 15.890437 0.99998741 L 11.999812 0.99998741 z M 18.999812 11.999988 C 17.339813 11.999988 15.999812 13.339989 15.999812 14.999988 C 15.999812 16.659986 17.339813 17.999988 18.999812 17.999988 C 20.65981 17.999988 21.999812 16.659986 21.999812 14.999988 C 21.999812 13.339989 20.65981 11.999988 18.999812 11.999988 z M 4.9998115 13.999988 C 5.5498109 13.999988 5.9998115 14.449988 5.9998115 14.999988 C 5.9998115 15.549987 5.5498109 15.999988 4.9998115 15.999988 C 4.449812 15.999988 3.9998114 15.549987 3.9998114 14.999988 C 3.9998114 14.449988 4.449812 13.999988 4.9998115 13.999988 z M 18.999812 13.999988 C 19.549811 13.999988 19.999812 14.449988 19.999812 14.999988 C 19.999812 15.549987 19.549811 15.999988 18.999812 15.999988 C 18.449812 15.999988 17.999812 15.549987 17.999812 14.999988 C 17.999812 14.449988 18.449812 13.999988 18.999812 13.999988 z M 10.999812 17.999988 L 10.999812 19.999988 L 6.9998115 19.999988 L 12.999812 22.999988 L 12.999812 20.999988 L 16.999812 20.999988 L 10.999812 17.999988 z " /></g></g></svg>

<?xml version="1.0" standalone="no"?>
        <!DOCTYPE svg PUBLIC "-//W3C//DTD SVG 1.1//EN" 
        "http://www.w3.org/Graphics/SVG/1.1/DTD/svg11.dtd">  <svg xmlns="http://www.w3.org/2000/svg" viewBox="0 0 24 24"><path d="M7.82,16H15v-1c0-2.21,1.79-4,4-4h0.74l-1.9-8.44C17.63,1.65,16.82,1,15.89,1H12v2h3.89l1.4,6.25c0,0-0.01,0-0.01,0 c-2.16,0.65-3.81,2.48-4.19,4.75H7.82c-0.48-1.34-1.86-2.24-3.42-1.94c-1.18,0.23-2.13,1.2-2.35,2.38C1.7,16.34,3.16,18,5,18 C6.3,18,7.4,17.16,7.82,16z M5,16c-0.55,0-1-0.45-1-1s0.45-1,1-1s1,0.45,1,1S5.55,16,5,16z"/><path d="M19,12c-1.66,0-3,1.34-3,3s1.34,3,3,3s3-1.34,3-3S20.66,12,19,12z M19,16c-0.55,0-1-0.45-1-1s0.45-1,1-1s1,0.45,1,1 S19.55,16,19,16z"/><polygon points="11,20 7,20 13,23 13,21 17,21 11,18"/></svg>
